X:156
T:Duke of Anglsea Waltz,The. JGi.156
M:3/8
L:1/8
Q:3/8=65
S:Joshua Gibbons MS,1823,Tealby,Lincs.
R:waltz
O:Tealby,Lincolnshire
Z:VMP/R.Greig, 2009
K:F
FAc|”^f3 in MS”f2f|ee/f/g/e/|fcc|FAc|”^f3 in MS”f2f|ee/f/g/e/|f3:|
|:cge|cfa|cge|fe/f/g/f/|cge|cfa|cge|f3:|
|:gag|g2e|a2f|g2e|def|e2g|g/a/g/f/e/d/|”DC”c3:|

